icons/forecast/24d.svg

<svg x="0" y="0" viewBox="0 0 100 100" xmlns="http://www.w3.org/2000/svg" xmlns:xlink="http://www.w3.org/1999/xlink">;
  <symbol id="raindrop">
    <path fill="#0062bf" d="M2.5,13A2.5,2.5,0,0,1,.21,9.51l3.55-8a2.5,2.5,0,0,1,4.57,2l-3.55,8A2.5,2.5,0,0,1,2.5,13Z"></path>
  </symbol>
  <symbol id="lightning">
    <polygon fill="#ffdd15" points="19.6 23.42 12.74 20.39 15.55 5 5 24.49 12.08 27.51 7.49 45 19.6 23.42"></polygon>
  </symbol>
  <symbol id="cloud">
    <path d="M55.7,5A23.94,23.94,0,0,0,34.37,18.05a9.9,9.9,0,0,0-12.78,5.56,15,15,0,0,0-1.71-.1A14.81,14.81,0,0,0,9.2,28,14.63,14.63,0,0,0,5,38.17v.21A14.83,14.83,0,0,0,19.88,53.06H75.59a14.3,14.3,0,0,0,3.67-28.14A23.93,23.93,0,0,0,55.7,5Z"></path>
    <image x="5" y="14" width="85" height="43" xlink:href="data:image/png;base64,iVBORw0KGgoAAAANSUhEUgAAAFYAAAAkCAMAAAAkYj0PAAAABGdBTUEAALGPC/xhBQAAAAFzUkdCAK7OHOkAAAAVUExURSgoKExpcaCgoFBQUG5ublBQUISEhI1fsT0AAAAHdFJOUxsACBsPFRpGXuFgAAABWElEQVRIx7XV25bDIAgF0BMu/v8nF/E+iWlqHNKVN3cpIMXxL4GFM3SQfTazkUyxk63oLYwlVSy2silXkS/wUrZS2a3ZCn1zsdSw7UUYijuHsTa1IvfwWrbSXLkc4N9r27JViwmM1UtWXA3hohQ41m6vl8FQZi7wu2z7KXPW4uRiZS+2AmdXN7DdQEQWQHYHlt6z0dXBBa2xeeVktiZc1jDoF5eGkI4d4MjKc7cNbZ3bqjocLLx5oPDYTaIftcfvAvcs2GFxVsJTOP1wO1jGdUSLaz/DWA1Tl45+Tkqul2ArcPzayGq8JafOUffP3TUp6JQs+Rptc6vtmtBkUw+dv0NzWG0PYf8O7Ym09+ITXyXOPZqEX95aFe3PKxRsL2XV3HR+ZALirPSF0ceHp6F51WBv1A22VaW2GHWzWvat8LOAPf4CrjrA+neNK7+PQBf/DmmLrId09/QDWyESBsibwBUAAAAASUVORK5CYII="></image>
  </symbol>
  <symbol id="s30">
    <g mask="url(#lightning_37_51_1_1_4)">
      <use xlink:href="#cloud" fill="#cccccc" x="0" y="0" width="100" height="100" transform="translate(3,18) scale(1,1)"></use>
    </g>
    <use xlink:href="#lightning"  x="0" y="0" width="100" height="100" transform="translate(37,51) scale(1,1)"></use>
    <use xlink:href="#raindrop"  x="0" y="0" width="100" height="100" transform="translate(28,87) scale(1,1)"></use>
    <use xlink:href="#raindrop"  x="0" y="0" width="100" height="100" transform="translate(58,78) scale(1,1)"></use>
  </symbol>
  <symbol id="sun">
    <path class="sun-glow" fill="url(#sun-glow-grad)" d="M66.64,47.86,82,41,66.64,34.12l9.84-13.66L59.76,22.22,61.46,5.47l-13.6,9.89L41,0,34.12,15.36,20.46,5.52l1.76,16.72L5.47,20.54l9.89,13.6L0,41l15.36,6.83L5.52,61.54l16.72-1.76L20.54,76.53l13.6-9.89L41,82l6.83-15.36,13.66,9.84L59.78,59.76l16.75,1.69Z"></path>
    <path class="sun-outer" fill="#ffd348" d="M19.28,53.5a25,25,0,1,0,9.15-34.16A25,25,0,0,0,19.28,53.5Z"></path>
    <path class="sun-inner" fill="url(#sun-inner-grad)" d="M22.74,51.5a21,21,0,1,0,7.69-28.69A21,21,0,0,0,22.74,51.5Z"></path>
  </symbol>

  <defs>
    <mask id="cloud_3_18_1_1_5">
    <rect x="0" y="0" width="100" height="100" fill="white"></rect>
    <use xlink:href="#cloud" fill="black" stroke="black" stroke-linejoin="round" stroke-width="10" x="0" y="0" width="100" height="100" transform="translate(3,18) scale(1,1)"></use>
  </mask>
    <radialGradient id="sun-glow-grad" cx="41" cy="41" r="41" gradientUnits="userSpaceOnUse">
      <stop offset="54%" stop-color="#d6b849"/>
      <stop offset="67%" stop-color="#ffce47"/>
      <stop offset="100%" stop-color="#ffdb73"/>
    </radialGradient>
    <linearGradient id="sun-inner-grad" x1="0%" y1="0%" x2="100%" y2="100%">
      <stop offset="0%" stop-color="#ffaf22" />
      <stop offset="100%" stop-color="#f09900" />
    </linearGradient>
    <mask id="lightning_37_51_1_1_4">
    <rect x="0" y="0" width="100" height="100" fill="white"></rect>
    <use xlink:href="#lightning" fill="black" stroke="black" stroke-linejoin="round" stroke-width="8" x="0" y="0" width="100" height="100" transform="translate(37,51) scale(1,1)"></use>
  </mask>
  </defs>
  <symbol id="s24d">
    <g mask="url(#cloud_3_18_1_1_5)">
      <use xlink:href="#sun"  x="0" y="0" width="100" height="100" transform="translate(0,2) scale(0.7,0.7)"></use>
    </g>
    <use xlink:href="#s30" x="0" y="0" width="100" height="100"></use>
  </symbol>
  <use xlink:href="#s24d" x="0" y="0" width="100" height="100"></use>
</svg>

<?xml version="1.0" encoding="UTF-8" standalone="no"?>
<svg
   xmlns:dc="http://purl.org/dc/elements/1.1/"
   xmlns:cc="http://creativecommons.org/ns#"
   xmlns:rdf="http://www.w3.org/1999/02/22-rdf-syntax-ns#"
   xmlns:svg="http://www.w3.org/2000/svg"
   xmlns="http://www.w3.org/2000/svg"
   xmlns:xlink="http://www.w3.org/1999/xlink"
   xmlns:sodipodi="http://sodipodi.sourceforge.net/DTD/sodipodi-0.dtd"
   xmlns:inkscape="http://www.inkscape.org/namespaces/inkscape"
   x="0"
   y="0"
   viewBox="0 0 93 98"
   version="1.1"
   id="svg5634"
   sodipodi:docname="24d.svg"
   width="93"
   height="98"
   inkscape:version="0.92.3 (2405546, 2018-03-11)"><metadata
   id="metadata5638">
  <rdf:RDF>
    <cc:Work
       rdf:about="">
      <dc:format>image/svg+xml</dc:format>
      <dc:type
         rdf:resource="http://purl.org/dc/dcmitype/StillImage" />
    </cc:Work>
  </rdf:RDF>
</metadata>
<sodipodi:namedview
   pagecolor="#ffffff"
   bordercolor="#666666"
   borderopacity="1"
   objecttolerance="10"
   gridtolerance="10"
   guidetolerance="10"
   inkscape:pageopacity="0"
   inkscape:pageshadow="2"
   inkscape:window-width="640"
   inkscape:window-height="480"
   id="namedview5636"
   showgrid="false"
   inkscape:zoom="2.36"
   inkscape:cx="50"
   inkscape:cy="50"
   inkscape:window-x="0"
   inkscape:window-y="0"
   inkscape:window-maximized="0"
   inkscape:current-layer="svg5634" />
;
  <symbol
   id="raindrop"
   transform="translate(0,-2)">
  <path
     d="M 2.5,13 A 2.5,2.5 0 0 1 0.21,9.51 l 3.55,-8 a 2.5,2.5 0 0 1 4.57,2 l -3.55,8 A 2.5,2.5 0 0 1 2.5,13 Z"
     id="path5572"
     inkscape:connector-curvature="0"
     style="fill:#0062bf" />
</symbol>
<symbol
   id="lightning"
   transform="translate(0,-2)">
  <polygon
     points="15.55,5 5,24.49 12.08,27.51 7.49,45 19.6,23.42 12.74,20.39 "
     id="polygon5575"
     style="fill:#ffdd15" />
</symbol>
<symbol
   id="cloud"
   transform="translate(0,-2)">
  <path
     d="M 55.7,5 A 23.94,23.94 0 0 0 34.37,18.05 9.9,9.9 0 0 0 21.59,23.61 15,15 0 0 0 19.88,23.51 14.81,14.81 0 0 0 9.2,28 14.63,14.63 0 0 0 5,38.17 v 0.21 A 14.83,14.83 0 0 0 19.88,53.06 H 75.59 A 14.3,14.3 0 0 0 79.26,24.92 23.93,23.93 0 0 0 55.7,5 Z"
     id="path5578"
     inkscape:connector-curvature="0" />
  <image
     x="5"
     y="14"
     width="85"
     height="43"
     xlink:href="data:image/png;base64,iVBORw0KGgoAAAANSUhEUgAAAFYAAAAkCAMAAAAkYj0PAAAABGdBTUEAALGPC/xhBQAAAAFzUkdCAK7OHOkAAAAVUExURSgoKExpcaCgoFBQUG5ublBQUISEhI1fsT0AAAAHdFJOUxsACBsPFRpGXuFgAAABWElEQVRIx7XV25bDIAgF0BMu/v8nF/E+iWlqHNKVN3cpIMXxL4GFM3SQfTazkUyxk63oLYwlVSy2silXkS/wUrZS2a3ZCn1zsdSw7UUYijuHsTa1IvfwWrbSXLkc4N9r27JViwmM1UtWXA3hohQ41m6vl8FQZi7wu2z7KXPW4uRiZS+2AmdXN7DdQEQWQHYHlt6z0dXBBa2xeeVktiZc1jDoF5eGkI4d4MjKc7cNbZ3bqjocLLx5oPDYTaIftcfvAvcs2GFxVsJTOP1wO1jGdUSLaz/DWA1Tl45+Tkqul2ArcPzayGq8JafOUffP3TUp6JQs+Rptc6vtmtBkUw+dv0NzWG0PYf8O7Ym09+ITXyXOPZqEX95aFe3PKxRsL2XV3HR+ZALirPSF0ceHp6F51WBv1A22VaW2GHWzWvat8LOAPf4CrjrA+neNK7+PQBf/DmmLrId09/QDWyESBsibwBUAAAAASUVORK5CYII="
     id="image5580" />
</symbol>
<symbol
   id="s30"
   transform="translate(0,-2)">
  <g
     mask="url(#lightning_37_51_1_1_4)"
     id="g5585">
    <use
       xlink:href="#cloud"
       x="0"
       y="0"
       width="100"
       height="100"
       transform="translate(3,20)"
       id="use5583"
       style="fill:#cccccc" />
  </g>
  <use
     xlink:href="#lightning"
     x="0"
     y="0"
     width="100"
     height="100"
     transform="translate(37,53)"
     id="use5587" />
  <use
     xlink:href="#raindrop"
     x="0"
     y="0"
     width="100"
     height="100"
     transform="translate(28,89)"
     id="use5589" />
  <use
     xlink:href="#raindrop"
     x="0"
     y="0"
     width="100"
     height="100"
     transform="translate(58,80)"
     id="use5591" />
</symbol>
<symbol
   id="sun"
   transform="translate(0,-2)">
  <path
     class="sun-glow"
     d="M 66.64,47.86 82,41 66.64,34.12 76.48,20.46 59.76,22.22 61.46,5.47 47.86,15.36 41,0 34.12,15.36 20.46,5.52 22.22,22.24 5.47,20.54 15.36,34.14 0,41 15.36,47.83 5.52,61.54 22.24,59.78 20.54,76.53 34.14,66.64 41,82 47.83,66.64 61.49,76.48 59.78,59.76 76.53,61.45 Z"
     id="path5594"
     inkscape:connector-curvature="0"
     style="fill:url(#radialGradient8282)" />
  <path
     class="sun-outer"
     d="M 19.28,53.5 A 25,25 0 1 0 28.43,19.34 25,25 0 0 0 19.28,53.5 Z"
     id="path5596"
     inkscape:connector-curvature="0"
     style="fill:#ffd348" />
  <path
     class="sun-inner"
     d="M 22.74,51.5 A 21,21 0 1 0 30.43,22.81 21,21 0 0 0 22.74,51.5 Z"
     id="path5598"
     inkscape:connector-curvature="0"
     style="fill:url(#linearGradient8284)" />
</symbol>
<defs
   id="defs5623">
  <mask
     id="cloud_3_18_1_1_5">
    <rect
       x="0"
       y="0"
       width="100"
       height="100"
       id="rect5601"
       style="fill:#ffffff" />
    <use
       xlink:href="#cloud"
       x="0"
       y="0"
       width="100"
       height="100"
       transform="translate(3,20)"
       id="use5603"
       style="fill:#000000;stroke:#000000;stroke-width:10;stroke-linejoin:round" />
  </mask>
  <radialGradient
     id="sun-glow-grad"
     cx="41"
     cy="41"
     r="41"
     gradientUnits="userSpaceOnUse">
    <stop
       offset="54%"
       stop-color="#d6b849"
       id="stop5606" />
    <stop
       offset="67%"
       stop-color="#ffce47"
       id="stop5608" />
    <stop
       offset="100%"
       stop-color="#ffdb73"
       id="stop5610" />
  </radialGradient>
  <linearGradient
     id="sun-inner-grad"
     x1="0"
     y1="0"
     x2="1"
     y2="1">
    <stop
       offset="0%"
       stop-color="#ffaf22"
       id="stop5613" />
    <stop
       offset="100%"
       stop-color="#f09900"
       id="stop5615" />
  </linearGradient>
  <mask
     id="lightning_37_51_1_1_4">
    <rect
       x="0"
       y="0"
       width="100"
       height="100"
       id="rect5618"
       style="fill:#ffffff" />
    <use
       xlink:href="#lightning"
       x="0"
       y="0"
       width="100"
       height="100"
       transform="translate(37,53)"
       id="use5620"
       style="fill:#000000;stroke:#000000;stroke-width:8;stroke-linejoin:round" />
  </mask>
  <radialGradient
     inkscape:collect="always"
     xlink:href="#sun-glow-grad"
     id="radialGradient8282"
     gradientUnits="userSpaceOnUse"
     cx="41"
     cy="41"
     r="41" />
  <linearGradient
     inkscape:collect="always"
     xlink:href="#sun-inner-grad"
     id="linearGradient8284"
     x1="19.925899"
     y1="19.998901"
     x2="61.925899"
     y2="61.998901"
     gradientUnits="userSpaceOnUse" />
</defs>
<symbol
   id="s24d"
   transform="translate(0,-2)">
  <g
     mask="url(#cloud_3_18_1_1_5)"
     id="g5627">
    <use
       xlink:href="#sun"
       x="0"
       y="0"
       width="100"
       height="100"
       transform="matrix(0.7,0,0,0.7,0,3.4)"
       id="use5625" />
  </g>
  <use
     xlink:href="#s30"
     x="0"
     y="0"
     width="100"
     height="100"
     id="use5629"
     transform="translate(0,2)" />
</symbol>
<use
   xlink:href="#s24d"
   x="0"
   y="0"
   width="100"
   height="100"
   id="use5632" />
</svg>
